X:88
M:C
L:1/8
Q:"Moderato  "1/4=120
K:C
!p!GE|(C>CD>E) (c>BA>G)|(A>GAc) [d2G2B,2G,2] (cd/e/)|\
(C>CD>E) (c>BA>G)| ([AF]>[GE][AF][BD]) [c3E3]||
([ec]gec) ([AF]>c[GE]E)|(G>G[AF][BD]) [c3E3] G|
(C>CD>E) (c>BA>G)|(A>GAc) [d2G2B,2G,2] (cd/e/)|\
(C>CD>E) (c>BA>G)| ([AF]>[GE][AF][BD]) [c2E2]||

